cmd/conneroh/_static/dist/svg/table-rows-split.svg

<svg height="18" viewBox="0 0 18 18" width="18" xmlns="http://www.w3.org/2000/svg"><path d="m14 10h2m-1 12v-8m0-12v4m-13 4h2m16 0h2m-19 9h18m-18 3v-6c0-1.104167.895833-2 2-2h14c1.104167 0 2 .895833 2 2v6m-18-20v2c0 1.104167.895833 2 2 2h14c1.104167 0 2-.895833 2-2v-2m-13 8h2m-1 12v-8m0-12v4" fill="none" stroke="#fff" stroke-linecap="round" stroke-linejoin="round" stroke-width="2" transform="scale(.75)"/></svg>

<svg xmlns="http://www.w3.org/2000/svg" width="24" height="24" fill="none" stroke="white" stroke-linecap="round" stroke-linejoin="round" stroke-width="2">
    <path d="M14 10h2m-1 12v-8m0-12v4M2 10h2m16 0h2M3 19h18M3 22v-6a2 2 135 0 1 2-2h14a2 2 45 0 1 2 2v6M3 2v2a2 2 45 0 0 2 2h14a2 2 135 0 0 2-2V2M8 10h2M9 22v-8M9 2v4"/>
</svg>
